brandFactory_export/2.Regular/Cerrar_2Regular.svg

<?xml version="1.0" encoding="UTF-8"?>
<svg width="24px" height="24px" viewBox="0 0 24 24" version="1.1" xmlns="http://www.w3.org/2000/svg" xmlns:xlink="http://www.w3.org/1999/xlink">
    <title>2.Regular/Cerrar_2Regular</title>
    <g id="Symbols" stroke="none" stroke-width="1" fill="none" fill-rule="evenodd">
        <g id="2.Regular/Cerrar_2Regular" fill="#5CB615" fill-rule="nonzero">
            <path d="M13.4285714,11.8117647 L23.287395,1.95294118 C23.7344538,1.50588235 23.7344538,0.783193277 23.287395,0.336134454 C22.8403361,-0.11092437 22.1176471,-0.11092437 21.6705882,0.336134454 L11.8117647,10.194958 L1.95294118,0.336134454 C1.49579832,-0.100840336 0.769747899,-0.0806722689 0.336134454,0.376470588 C-0.0840336134,0.816806723 -0.0840336134,1.5092437 0.336134454,1.95294118 L10.194958,11.8117647 L0.336134454,21.6705882 C-0.11092437,22.1176471 -0.11092437,22.8436975 0.336134454,23.287395 C0.783193277,23.7310924 1.50588235,23.7310924 1.95294118,23.2840336 L11.8117647,13.4252101 L21.6705882,23.2840336 C22.1142857,23.7310924 22.8336134,23.7344538 23.2806723,23.2907563 L23.287395,23.2840336 C23.7344538,22.8369748 23.7344538,22.1142857 23.287395,21.6705882 L13.4285714,11.8117647 Z" id="Path"></path>
        </g>
    </g>
</svg>

<svg width="24" height="24" viewBox="0 0 24 24" xmlns="http://www.w3.org/2000/svg"><path d="M13.429 11.812l9.858-9.86A1.142 1.142 0 1021.671.337l-9.86 9.859L1.954.336A1.143 1.143 0 00.336 1.953l9.859 9.859L.336 21.67a1.142 1.142 0 101.617 1.613l9.859-9.859 9.859 9.859c.443.447 1.163.45 1.61.007l.006-.007a1.138 1.138 0 000-1.613l-9.858-9.86z" fill="#5CB615" fill-rule="nonzero"/></svg>
